icons/lines/emoji-sad.svg

<svg xmlns="http://www.w3.org/2000/svg" width="24" height="24" viewBox="0 0 24 24" fill="none" stroke="currentColor" stroke-width="2" stroke-linecap="round" stroke-linejoin="round">
  <path d="M13.36 8.75a2.583 2.583 0 0 1 3.64 0" />
  <path d="M15 22c5 0 7-2 7-7V9c0-5-2-7-7-7H9C4 2 2 4 2 9v6c0 5 2 7 7 7z" />
  <path d="M15.6 17.7a.896.896 0 0 0 .9-.9 1 1 0 0 0-9 0 .896.896 0 0 0 .9.9z" />
  <path d="M7 8.75a2.583 2.583 0 0 1 3.64 0" />
</svg>

<svg xmlns="http://www.w3.org/2000/svg" width="24" height="24" viewBox="0 0 24 24" fill="none" stroke="currentColor" stroke-width="2" stroke-linecap="round" stroke-linejoin="round" >
  <path d="M9 22H15C20 22 22 20 22 15V9C22 4 20 2 15 2H9C4 2 2 4 2 9V15C2 20 4 22 9 22Z"/>
  <path d="M7 8.75C8 7.75 9.63 7.75 10.64 8.75" stroke-miterlimit="10"/>
  <path d="M13.3604 8.75C14.3604 7.75 15.9904 7.75 17.0004 8.75" stroke-miterlimit="10"/>
  <path d="M8.4 17.7H15.6C16.1 17.7 16.5 17.3 16.5 16.8C16.5 14.31 14.49 12.3 12 12.3C9.51 12.3 7.5 14.31 7.5 16.8C7.5 17.3 7.9 17.7 8.4 17.7Z" stroke-miterlimit="10"/>
  </svg>
